src/telerik-icons/solid/align-left.svg

<?xml version="1.0" encoding="utf-8"?>
<svg xmlns="http://www.w3.org/2000/svg" width="512" height="512" viewBox="0 0 512 512">
  <path d="M448 96H64V64h384v32zm-96 32H64v32h288v-32zm96 64H64v32h384v-32zm-96 64H64v32h288v-32zm96 64H64v32h384v-32zm-96 64H64v32h288v-32z"/>
</svg>

<?xml version="1.0" encoding="utf-8"?>
<!-- Generator: Adobe Illustrator 19.2.1, SVG Export Plug-In . SVG Version: 6.00 Build 0)  -->
<svg xmlns="http://www.w3.org/2000/svg" width="512" height="512" viewBox="0 0 512 512">
<path d="M448,96H64V64h384V96z M352,128H64v32h288V128z M448,192H64v32h384V192z M352,256H64v32h288V256z M448,320H64v32h384V320z
	 M352,384H64v32h288V384z" />
</svg>
